packages/dnb-eufemia/assets/icons/house_1.svg

<svg width="16" height="16" viewBox="0 0 16 16" fill="none" xmlns="http://www.w3.org/2000/svg">
<path d="M2.86667 9.14652V14.3861H6.6V10.5465C6.6 10.0311 7.01787 9.61319 7.53333 9.61319H8.46667C8.98213 9.61319 9.4 10.0311 9.4 10.5465V14.3861H13.1333V9.14652M1 8.21319L7.34044 1.87336C7.70491 1.50901 8.29571 1.50901 8.66018 1.87336L15 8.21319M10.8 4.01319V1.83611H13.1333V6.34652" stroke="black" stroke-width="1.5" stroke-linecap="round" stroke-linejoin="round"/>
</svg>

<svg width="16" height="16" viewBox="0 0 16 16" fill="none" xmlns="http://www.w3.org/2000/svg"><path d="M2.867 9.147v5.24H6.6v-3.84c0-.516.418-.934.933-.934h.934c.515 0 .933.418.933.934v3.84h3.733v-5.24M1 8.213l6.34-6.34a.933.933 0 0 1 1.32 0L15 8.213m-4.2-4.2V1.836h2.333v4.51" stroke="#000" stroke-width="1.5" stroke-linecap="round" stroke-linejoin="round"/></svg>
